!!!SOCIAL_FUNCTION:	woman's game songs
!!!PDT:	1958
!!!OTL: No_38_Woman's_Game_Song_(b).krn
!!!REG: Northern California
!!!LANG: Non-Tone
!!!LING_GROUP: Penutian
**kern
*staff1
=1-
*clefF4
*k[f#c#g#]
*M2/4
8B\L
8B\J
8A\L
8A\J
=2
8c#\L
8c#\J
8B\L
8A\J
=3
*M5/8
8c#\L
8B\
8F#\
8A\
8A\J
=4
*M2/4
8c#\L
(16B\L
16A\JJ)
8A\L
8A\J
=5
*M5/8
8c#\L
8B\
8F#\
8A\J
8r
=6
*M2/4
16c#\LK
8.c#\J
(16c#\LL
16B\J)
8c#\J
=7
*M5/8
8c#\L
8B\
8F#\
8A\
8A\J
=8
*M2/4
8c#\L
8c#\J
8B\L
8A\J
=9
*M5/8
8c#\L
8B\
8F#\
8A\
8A\J
=10
*M2/4
8c#\L
(16B\L
16A\JJ)
8A\L
8A\J
=11
*M5/8
8c#\L
8B\
8F#\
8A\
8A\J
=12
*M2/4
8c#\L
8c#\J
8c#\L
8B\J
=13
*M5/8
8c#\L
8B\
8F#\
8A\
8A\J
=14
*M2/4
16c#\LK
8.B\J
16B\LL
16A\J
8A\J
=15
*M5/8
8c#\L
8B\
8F#\
8A\
8A\J
=16
*M2/4
12c#\L
12c#\
12c#\J
8c#\L
8B\J
=17
*M5/8
8c#\L
8B\
8F#\
8A\
8A\J
=18
*M2/4
8c#\L
8c#\J
8B\L
8A\J
=19
*M5/8
8c#\L
8B\
8F#\
8A\J
8r
=20
*M2/4
16c#\LK
8.c#\J
16c#\LL
16B\J
8c#\J
=21
*M5/8
8c#\L
8B\
8F#\
8A\
8A\J
=22
*M2/4
8c#\L
16B\L
16B\JJ
8B\L
8A\J
=23
*M5/8
8c#\L
8B\
8F#\
8A\
8A\J
=24
*M2/4
8c#\L
16c#\L
16c#\JJ
8c#\L
8B\J
=25
*M5/8
8c#\L
8B\
8F#\
8A\
8A\J
=26
*M2/4
8c#\L
16B\L
16B\JJ
8B\L
8A\J
=27
*M5/8
8c#\L
8B\
8F#\
8A\J
8r
=28
*M2/4
32c#\LLK
16.c#\J
8c#\J
16c#\LL
16B\J
8c#\J
=29
*M5/8
8c#\L
8B\
8F#\
8A\
8A\J
=30
*M2/4
8c#\L
16B\L
16B\JJ
8B\L
8A\J
=31
*M5/8
8c#\L
8B\
8F#\
8A\J
8r
=32
*M2/4
8c#\L
16c#\L
16c#\JJ
8c#\L
8B\J
=33
*M5/8
8c#\L
8B\
8F#\
8A\
8A\J
=34
!!pagebreak:default
*M2/4
32c#\LLK
[16.B\J
8B\J]
16B\LL
16A\J
8A\J
=35
*M5/8
8c#\L
8B\
8F#\
8A\J
8r
==
*-
